X:20
T:Rondeau de Landes
R:dance
B:MCT1 124
M:2/4
L:1/16
K:G
G2d2 d2d2 | cBAB c2BA | G2d2 d2d2 | cBAB c4 :|
G2AB A2A2 | G2AB c4 | c2de d2c2 |1 BcBA B2G2 :|2 BcBA G4 |]

